src/assets/images/toolbox/slack.svg

<svg
  width="32"
  height="32"
  viewBox="0 0 32 32"
  fill="transparent"
  xmlns="http://www.w3.org/2000/svg">
  <path
    fill="#E01E5A"
    d="M6.74617 20.2292C6.74617 22.0891 5.24423 23.5923 3.3858 23.5923C1.52738 23.5923 0.0254355 22.0891 0.0254355 20.2292C0.0254355 18.3694 1.52738 16.8662 3.38593 16.8662H6.74605L6.74617 20.2292ZM8.42642 20.2292C8.42642 18.3694 9.92837 16.8662 11.7868 16.8662C13.6452 16.8662 15.1472 18.3694 15.1472 20.2293V28.6368C15.1472 30.4967 13.6452 32 11.7867 32C9.92849 32 8.42642 30.4967 8.42642 28.6368V20.2292Z"
  />
  <path
    fill="#36C5F0"
    d="M11.7868 6.72608C9.92837 6.72608 8.4263 5.22294 8.4263 3.36304C8.4263 1.50314 9.92849 0 11.7868 0C13.6451 0 15.1472 1.50314 15.1472 3.36304V6.72621L11.7868 6.72608ZM11.7868 8.43312C13.6452 8.43312 15.1472 9.93627 15.1472 11.7962C15.1472 13.6561 13.6452 15.1592 11.7867 15.1592H3.36049C1.50195 15.1592 0 13.6561 0 11.796C0 9.93639 1.50195 8.43312 3.36037 8.43312H11.7868Z"
  />
  <path
    fill="#2EB67D"
    d="M25.2538 11.7962C25.2538 9.93627 26.7558 8.433 28.6141 8.433C30.4725 8.433 31.9746 9.93627 31.9746 11.7962C31.9746 13.6561 30.4725 15.1592 28.6141 15.1592H25.2538V11.7962ZM23.5736 11.7962C23.5736 13.6561 22.0715 15.1592 20.2131 15.1592C18.3548 15.1592 16.8528 13.6561 16.8528 11.796V3.36317C16.8528 1.50314 18.3548 0 20.2131 0C22.0714 0 23.5735 1.50314 23.5735 3.36304L23.5736 11.7962Z"
  />
  <path
    fill="#ECB22E"
    d="M20.2131 25.2739C22.0715 25.2739 23.5736 26.7771 23.5736 28.6368C23.5736 30.4967 22.0715 32 20.2131 32C18.3548 32 16.8528 30.4967 16.8528 28.6368V25.2739H20.2131ZM20.2131 23.5923C18.3548 23.5923 16.8528 22.0891 16.8528 20.2292C16.8528 18.3694 18.3548 16.8662 20.2132 16.8662H28.6395C30.4979 16.8662 32 18.3694 32 20.2293C32 22.0891 30.4979 23.5923 28.6395 23.5923H20.2131Z"
  />
</svg>

<svg xmlns="http://www.w3.org/2000/svg" width="32" height="32" fill="transparent" xmlns:v="https://vecta.io/nano">
  <path fill="#e01e5a"
    d="M6.746 20.229a3.36 3.36 0 0 1-3.36 3.363 3.36 3.36 0 0 1-3.36-3.363 3.36 3.36 0 0 1 3.36-3.363h3.36v3.363zm1.68 0a3.36 3.36 0 1 1 6.721 0v8.408a3.36 3.36 0 1 1-6.721 0v-8.408z" />
  <path fill="#36c5f0"
    d="M11.787 6.726a3.36 3.36 0 0 1-3.36-3.363 3.36 3.36 0 1 1 6.721 0v3.363h-3.36zm0 1.707a3.36 3.36 0 0 1 0 6.726H3.36a3.36 3.36 0 0 1 0-6.726h8.426z" />
  <path fill="#2eb67d"
    d="M25.254 11.796a3.36 3.36 0 1 1 6.721 0 3.36 3.36 0 0 1-3.36 3.363h-3.36v-3.363zm-1.68 0a3.36 3.36 0 1 1-6.721 0V3.363a3.36 3.36 0 1 1 6.721 0v8.433z" />
  <path fill="#ecb22e"
    d="M20.213 25.274a3.36 3.36 0 0 1 0 6.726 3.36 3.36 0 0 1-3.36-3.363v-3.363h3.36zm0-1.682a3.36 3.36 0 0 1 0-6.726h8.426a3.36 3.36 0 1 1 0 6.726h-8.426z" />
</svg>
